X: 10043
T: The JB-JB WALTZ
C: Bob McQuillen 10 Oct 93
B: Bob's Note Book 10 #43
%R: waltz
Z: 2020 John Chambers <jc:trillian.mit.edu>
M: 3/4
L: 1/4
K: G
D \
| G>AG | GFG | ABc | d2c | BG>E | DGA | Bc>B | A2D |\
| G>AG | GFG | ABc | d2c | BG>E | DcB | A3 | G2 :|
|: d \
| gg>a | gdB | c>Bc | ABd | gf>a | gdB | c>de | A2G/E/ |\
| DG>F | E2D/E/ | FB>A | G>AB | cd>e | dgB | A3 | G2 :|
%%begintext align
%% Jami Boyle and Jonathan Brooks
%% are from Francestown, and they got married last June 19th.
%% I received a real nice invitation to their wedding, but I was away
%% at that time and couldn't go - I sure hope this belated wedding
%% waltz will tell you two how sorry I was to miss your Happy
%% Day - much love to you both, from Bob--...
%%endtext

%%sep 1 1 500

%%sep 1 1 500

